X:14
T:The Cricket and the Firefly
R:reel
C:Carl Hession
D::Carl Hession - Stepping Stone
S:Clare FM
Z:psc -  http://www.cranfordpub.com
L:1/8
Q:333
M:C|
K:Dmix
E|D2 AB AGFG |A2 AB cAGB|A2 DE FGAB|cAdB cAGE|
D2 AB AGFG |A2 AB cAGB|A2 ab age^c|dfed cAG:|
|:B|A2 dc AGFG|ADFG ABcB|A2 de fded|^c3 d cAGB|
A2 dc AGFG|ADFG ABcA|defg ~a3 d|^c2 dB cAG:|
